X:3
T:Cherokee
C:Ray Noble
L:1/4
M:C
I:linebreak $
K:Bb
"Bb6" D2"F+" F G |"Bb7" B2 G2 |"Eb" F2 D F |"Ebm" D2 C2 |$"Bb6" B,2"Cm" D F |"C7" d2 B2 ||1
"Cm" G2"Bo" F D |"Cm" C2"F+" ^C2 :|2$"Cm" G2"F7" D2 |"Bb" B,4 ||[K:B]"C#m" d2"F#7" z c |
"B" (3c A F z c ||$[K:A]"Bm" (3c A F"E7" z B |"A" E4 ||[K:G]"Am" B2"D7" z A |"G" (3A F D z A ||$
[K:Bb]"Gm" (3A F D"C7" z G |"Cm" C2"F+""_D.C. al 3rd end." ^C2 ||3"Cm" G2"F7" D2 |"Bb" B,4 |]

